X: 21372
T: I LOVE MY LOVE IN SECRET
Q: "Playfully"
%R: reel
B: "Edinburgh Repository of Music" v.2 p.137 #2
F: http://digital.nls.uk/special-collections-of-printed-music/pageturner.cfm?id=87776133
Z: 2015 John Chambers <jc:trillian.mit.edu>
M: C
L: 1/8
K: G
d>c |\
cBAG G2D2 | E2A>B A2dc | cBAG d2G2 | c>ded cBAG |\
cdec BcdB | cBAG A3G | BdeG dBAG | E2G>A G2 :|
|: dc |\
cBAG d2D2 | E2A>B A2d>c | {c}B2AG d2G2 | e2G2 d2G2 |\
~c>dec BcdB | {d}cBAG A2Bd | e>fgG dB{B}AG |{F}E2G>A G2 :|

%%sep 2 1 500
%%sep 1 1 500

